X:1
T:Kirkney Water
T:Kirkney Water
T:Alexander Walker
C:Alexander Walker
L:1/8
M:2/2
K:G
V:1 treble 
V:1
 d | g2 dc BGdB | cAeA cAAf | g2 dc BGdG | FEDC B,G,G, :| e | dega b2 ag | agab geeg | dBgB cBAG | %9
 AGBA GEEe | dega b2 ag | agab geed | egdb caBg | EADF GB,B, || %14

